resources/svg/exclamation-circle-o.svg

<svg xmlns="http://www.w3.org/2000/svg" viewBox="0 0 15 15" fill="none"><path d="M8 10.5V10H7V10.5H8ZM7 10.51V11.01H8V10.51H7ZM7 4V8H8V4H7ZM7 10.5V10.51H8V10.5H7ZM7.5 14C3.91015 14 1 11.0899 1 7.5H0C0 11.6421 3.35786 15 7.5 15V14ZM14 7.5C14 11.0899 11.0899 14 7.5 14V15C11.6421 15 15 11.6421 15 7.5H14ZM7.5 1C11.0899 1 14 3.91015 14 7.5H15C15 3.35786 11.6421 0 7.5 0V1ZM7.5 0C3.35786 0 0 3.35786 0 7.5H1C1 3.91015 3.91015 1 7.5 1V0Z" fill="black"/></svg>

<svg xmlns="http://www.w3.org/2000/svg" viewBox="0 0 15 15" fill="none"><path d="M8 10.5V10H7v.5h1zm-1 .01v.5h1v-.5H7zM7 4v4h1V4H7zm0 6.5v.01h1v-.01H7zm.5 3.5A6.5 6.5 0 011 7.5H0A7.5 7.5 0 007.5 15v-1zM14 7.5A6.5 6.5 0 017.5 14v1A7.5 7.5 0 0015 7.5h-1zM7.5 1A6.5 6.5 0 0114 7.5h1A7.5 7.5 0 007.5 0v1zm0-1A7.5 7.5 0 000 7.5h1A6.5 6.5 0 017.5 1V0z" fill="currentColor"/></svg>
